svg/u1f6a1.svg

<svg viewBox="0 0 128 128" xmlns="http://www.w3.org/2000/svg">
  <g>
    <path d="M92.46,65.95H42.29l-7.8,5.78l0.14,35.77c0,8.51,8.41,12.14,9.72,12.72h46.08 c1.31-0.58,9.72-4.2,9.72-12.72l0.14-35.77L92.46,65.95z" fill="#F4511E"/>
    <path d="M44.12,120.09c0,0,4.44,3.41,11.11,3.41c3.54,0,20.75,0,24.29,0c6.67,0,11.11-3.41,11.11-3.41H44.12 z" fill="#C62828"/>
    <path d="M100.27,82.99c0,0-0.02-10.3-0.02-11.33c0-2.14-6.86-5.79-8.67-5.79H43.22 c-1.81,0-8.73,3.87-8.73,6.01c0,1.02,0.03,11.1,0.03,11.1H100.27z" fill="#E0E0E0"/>
    <path d="M79.14,64.56H55.69c-1.62,0-2.93-1.31-2.93-2.93v0c0-1.62,1.31-2.93,2.93-2.93h23.45 c1.62,0,2.93,1.31,2.93,2.93v0C82.07,63.25,80.76,64.56,79.14,64.56z" fill="#607D8B"/>
    <path d="M48.6,62.42c3.83,0,32.97,0,37.04,0c4.08,0,6.6,3.41,6.6,3.41H42.51 C42.51,65.83,44.77,62.42,48.6,62.42z" fill="#82AEC0"/>
    <path d="M59.69,120.99h16.5c1.83,0,3.3-1.48,3.3-3.3 V77.76c0-2.2-1.78-3.97-3.97-3.97H59.69c-1.9,0-3.45,1.54-3.45,3.45v40.31C56.24,119.45,57.78,120.99,59.69,120.99z" fill="#F4511E" stroke="#C62828" stroke-width="2" stroke-miterlimit="10"/>
    <g>
      <polygon points="4,4.66 4,8.74 124,34.88 124,30.79 " fill="#9E9E9E"/>
      <path d="M92.16,15.46L34.1,3.97c-1.12-0.23-2.2,0.58-2.26,1.73c-0.13,2.46-1.09,5.97,4.88,7.19 c6.71,1.37,13.96,3.35,13.96,3.35c3.43,0.7,5.83,3.62,6.02,6.96c0.06,1.16,0.89,2.14,2.03,2.37l4.15,0.85 c1.14,0.23,2.28-0.34,2.8-1.39c1.48-3,4.84-4.74,8.26-4.04c0,0,7.45,1.01,14.15,2.38c5.98,1.22,7.98,1.44,7.98,1.44 S97.7,16.82,92.16,15.46z" fill="#607D8B"/>
      <circle cx="50.53" cy="13.37" r="5.32" fill="#37474F"/>
      <circle cx="38.92" cy="11" r="5.32" fill="#37474F"/>
      <circle cx="87.12" cy="20.83" r="5.32" fill="#37474F"/>
      <circle cx="75.51" cy="18.46" r="5.32" fill="#37474F"/>
      <circle cx="50.06" cy="15.65" r="5.32" fill="#82AEC0"/>
      <circle cx="38.45" cy="13.28" r="5.32" fill="#82AEC0"/>
      <circle cx="87" cy="23.19" r="5.32" fill="#82AEC0"/>
      <circle cx="75.39" cy="20.82" r="5.32" fill="#82AEC0"/>
      <path d="M35.15,12.29c0.25-0.74,0.77-1.39,1.44-1.8 c0.67-0.41,1.49-0.57,2.26-0.44" fill="none" stroke="#94D1E0" stroke-width="2" stroke-miterlimit="10"/>
      <path d="M46.73,14.47c0.82-1.23,2.32-1.98,3.8-1.91" fill="none" stroke="#94D1E0" stroke-width="2" stroke-miterlimit="10"/>
      <path d="M72.05,19.08c0.58-1.45,2.19-2.41,3.75-2.24" fill="none" stroke="#94D1E0" stroke-width="2" stroke-miterlimit="10"/>
      <path d="M83.89,21.5c0.68-1.41,2.49-2.17,3.98-1.67" fill="none" stroke="#94D1E0" stroke-width="2" stroke-miterlimit="10"/>
    </g>
    <path d="M41.52,68.85c1.51-2.23,3.45-2,4.68-2h11.1c0.63,0,0.94,1.13,0.5,1.78l-0.15,0.22 c-1,1.49-2.37,2.3-3.79,2.26l-9.33-0.32C44.14,70.78,40.02,71.08,41.52,68.85z" fill="#FFFFFF"/>
    <path d="M69.82,60.94c-3.53-0.09-8.81-1.49-11.91-6.79c-2.36-4.05-3.95-8.49-3.07-16.09 s4.6-15.81,4.07-22.65h7c-0.19,11.21-3.7,17.72-4.17,24.84c-0.48,7.12,1.76,12.23,9.48,15.34c3.57,1.44,3.35,3.69,3.35,3.69 L69.82,60.94z" fill="#607D8B"/>
    <path d="M62.66,58.8h11.91c0,0-0.47-2.23-5.49-2.79C64.05,55.45,62.66,58.8,62.66,58.8z" fill="#37474F"/>
    <path d="M82.68,104.65V79.92c0-1.58,1.28-2.85,2.85-2.85h14.74l-0.18,30.43H85.53 C83.96,107.5,82.68,106.22,82.68,104.65z" fill="#37474F"/>
    <path d="M84.34,102.57V81.76c0-1.19,0.95-2.15,2.13-2.15l13.78-0.09l-0.15,25.2H86.47 C85.29,104.71,84.34,103.75,84.34,102.57z" fill="#BAE2FD"/>
    <path d="M52.08,104.65V79.92c0-1.58-1.28-2.85-2.85-2.85H34.49l0.18,30.43h14.55 C50.8,107.5,52.08,106.22,52.08,104.65z" fill="#37474F"/>
    <path d="M50.41,102.57V81.76c0-1.19-0.95-2.15-2.13-2.15l-13.78-0.09l0.15,25.2h13.63 C49.46,104.71,50.41,103.75,50.41,102.57z" fill="#BAE2FD"/>
    <path d="M73.48,77.03h-11.9c-1.47,0-2.66,1.19-2.66,2.66v25.01c0,1.47,1.19,2.66,2.66,2.66h11.9 c1.47,0,2.66-1.19,2.66-2.66V79.69C76.13,78.22,74.94,77.03,73.48,77.03z" fill="#37474F"/>
    <path d="M72.36,79.64h-9.67c-1.1,0-2,0.9-2,2v21.1c0,1.1,0.9,2,2,2h9.67c1.1,0,2-0.9,2-2v-21.1 C74.36,80.54,73.47,79.64,72.36,79.64z" fill="#BAE2FD"/>
  </g>
</svg>

<svg viewBox="0 0 128 128" xmlns="http://www.w3.org/2000/svg">
  <defs/>
  <path d="M92.46,65.95 L42.29,65.95 L34.49,71.73 L34.63,107.5 C34.63,116.01 43.04,119.64 44.35,120.22 L90.43,120.22 C91.74,119.64 100.15,116.02 100.15,107.5 L100.29,71.73 L92.46,65.95 Z" fill="#F4511E"/>
  <path d="M44.12,120.09 C44.12,120.09 48.56,123.5 55.23,123.5 C58.77,123.5 75.98,123.5 79.52,123.5 C86.19,123.5 90.63,120.09 90.63,120.09 L44.12,120.09 Z" fill="#C62828"/>
  <path d="M100.27,82.99 C100.27,82.99 100.25,72.69 100.25,71.66 C100.25,69.52 93.39,65.87 91.58,65.87 L43.22,65.87 C41.41,65.87 34.49,69.74 34.49,71.88 C34.49,72.9 34.52,82.98 34.52,82.98 L100.27,82.98 Z" fill="#E0E0E0"/>
  <path d="M79.14,64.56 L55.69,64.56 C54.07,64.56 52.76,63.25 52.76,61.63 L52.76,61.63 C52.76,60.01 54.07,58.7 55.69,58.7 L79.14,58.7 C80.76,58.7 82.07,60.01 82.07,61.63 L82.07,61.63 C82.07,63.25 80.76,64.56 79.14,64.56 Z" fill="#607D8B"/>
  <path d="M48.6,62.42 C52.43,62.42 81.57,62.42 85.64,62.42 C89.72,62.42 92.24,65.83 92.24,65.83 L42.51,65.83 C42.51,65.83 44.77,62.42 48.6,62.42 Z" fill="#82AEC0"/>
  <path d="M59.69,120.99 L76.19,120.99 C78.02,120.99 79.49,119.51 79.49,117.69 L79.49,77.76 C79.49,75.56 77.71,73.79 75.52,73.79 L59.69,73.79 C57.79,73.79 56.24,75.33 56.24,77.24 L56.24,117.55 C56.24,119.45 57.78,120.99 59.69,120.99 Z" fill="#F4511E"/>
  <path d="M59.69,121.99 Q57.845,121.99 56.542,120.69 Q55.24,119.391 55.24,117.55 L55.24,77.24 Q55.24,75.394 56.546,74.091 Q57.85,72.79 59.69,72.79 L75.52,72.79 Q77.578,72.79 79.033,74.242 Q80.49,75.697 80.49,77.76 L80.49,117.69 Q80.49,119.47 79.234,120.729 Q77.976,121.99 76.19,121.99 Z M59.69,119.99 L76.19,119.99 Q78.49,119.99 78.49,117.69 L78.49,77.76 Q78.49,76.526 77.62,75.658 Q76.751,74.79 75.52,74.79 L59.69,74.79 Q58.677,74.79 57.959,75.507 Q57.24,76.224 57.24,77.24 L57.24,117.55 Q57.24,119.99 59.69,119.99 Z" fill="#C62828"/>
  <path d="M4,4.66 L4,8.74 L124,34.88 L124,30.79 Z" fill="#9E9E9E"/>
  <path d="M92.16,15.46 L34.1,3.97 C32.98,3.74 31.9,4.55 31.84,5.7 C31.71,8.16 30.75,11.67 36.72,12.89 C43.43,14.26 50.68,16.24 50.68,16.24 C54.11,16.94 56.51,19.86 56.7,23.2 C56.76,24.36 57.59,25.34 58.73,25.57 L62.88,26.42 C64.02,26.65 65.16,26.08 65.68,25.03 C67.16,22.03 70.52,20.29 73.94,20.99 C73.94,20.99 81.39,22 88.09,23.37 C94.07,24.59 96.07,24.81 96.07,24.81 C96.07,24.81 97.7,16.82 92.16,15.46 Z" fill="#607D8B"/>
  <path d="M55.85,13.37 A5.32 5.32 0 1 1 45.21,13.37 A5.32 5.32 0 1 1 55.85,13.37 Z" fill="#37474F"/>
  <path d="M44.24,11 A5.32 5.32 0 1 1 33.6,11 A5.32 5.32 0 1 1 44.24,11 Z" fill="#37474F"/>
  <path d="M92.44,20.83 A5.32 5.32 0 1 1 81.8,20.83 A5.32 5.32 0 1 1 92.44,20.83 Z" fill="#37474F"/>
  <path d="M80.83,18.46 A5.32 5.32 0 1 1 70.19,18.46 A5.32 5.32 0 1 1 80.83,18.46 Z" fill="#37474F"/>
  <path d="M55.38,15.65 A5.32 5.32 0 1 1 44.74,15.65 A5.32 5.32 0 1 1 55.38,15.65 Z" fill="#82AEC0"/>
  <path d="M43.77,13.28 A5.32 5.32 0 1 1 33.13,13.28 A5.32 5.32 0 1 1 43.77,13.28 Z" fill="#82AEC0"/>
  <path d="M92.32,23.19 A5.32 5.32 0 1 1 81.68,23.19 A5.32 5.32 0 1 1 92.32,23.19 Z" fill="#82AEC0"/>
  <path d="M80.71,20.82 A5.32 5.32 0 1 1 70.07,20.82 A5.32 5.32 0 1 1 80.71,20.82 Z" fill="#82AEC0"/>
  <path d="M34.203,11.97 Q34.71,10.468 36.068,9.637 Q37.44,8.798 39.016,9.064 L38.684,11.036 Q37.845,10.894 37.112,11.343 Q36.373,11.795 36.097,12.61 Z" fill="#94D1E0"/>
  <path d="M45.898,13.915 Q47.562,11.419 50.577,11.561 L50.483,13.559 Q48.599,13.47 47.562,15.025 Z" fill="#94D1E0"/>
  <path d="M71.122,18.709 Q72.419,15.466 75.908,15.846 L75.692,17.834 Q73.712,17.618 72.978,19.451 Z" fill="#94D1E0"/>
  <path d="M82.989,21.066 Q84.62,17.685 88.188,18.882 L87.552,20.778 Q85.655,20.142 84.791,21.934 Z" fill="#94D1E0"/>
  <path d="M41.52,68.85 C43.03,66.62 44.97,66.85 46.2,66.85 L57.3,66.85 C57.93,66.85 58.24,67.98 57.8,68.63 L57.65,68.85 C56.65,70.34 55.28,71.15 53.86,71.11 L44.53,70.79 C44.14,70.78 40.02,71.08 41.52,68.85 Z" fill="#FFFFFF"/>
  <path d="M69.82,60.94 C66.29,60.85 61.01,59.45 57.91,54.15 C55.55,50.1 53.96,45.66 54.84,38.06 C55.72,30.46 59.44,22.25 58.91,15.41 L65.91,15.41 C65.72,26.62 62.21,33.13 61.74,40.25 C61.26,47.37 63.5,52.48 71.22,55.59 C74.79,57.03 74.57,59.28 74.57,59.28 L69.82,60.94 Z" fill="#607D8B"/>
  <path d="M62.66,58.8 L74.57,58.8 C74.57,58.8 74.1,56.57 69.08,56.01 C64.05,55.45 62.66,58.8 62.66,58.8 Z" fill="#37474F"/>
  <path d="M82.68,104.65 L82.68,79.92 C82.68,78.34 83.96,77.07 85.53,77.07 L100.27,77.07 L100.09,107.5 L85.53,107.5 C83.96,107.5 82.68,106.22 82.68,104.65 Z" fill="#37474F"/>
  <path d="M84.34,102.57 L84.34,81.76 C84.34,80.57 85.29,79.61 86.47,79.61 L100.25,79.52 L100.1,104.72 L86.47,104.72 C85.29,104.71 84.34,103.75 84.34,102.57 Z" fill="#BAE2FD"/>
  <path d="M52.08,104.65 L52.08,79.92 C52.08,78.34 50.8,77.07 49.23,77.07 L34.49,77.07 L34.67,107.5 L49.22,107.5 C50.8,107.5 52.08,106.22 52.08,104.65 Z" fill="#37474F"/>
  <path d="M50.41,102.57 L50.41,81.76 C50.41,80.57 49.46,79.61 48.28,79.61 L34.5,79.52 L34.65,104.72 L48.28,104.72 C49.46,104.71 50.41,103.75 50.41,102.57 Z" fill="#BAE2FD"/>
  <path d="M73.48,77.03 L61.58,77.03 C60.11,77.03 58.92,78.22 58.92,79.69 L58.92,104.7 C58.92,106.17 60.11,107.36 61.58,107.36 L73.48,107.36 C74.95,107.36 76.14,106.17 76.14,104.7 L76.14,79.69 C76.13,78.22 74.94,77.03 73.48,77.03 Z" fill="#37474F"/>
  <path d="M72.36,79.64 L62.69,79.64 C61.59,79.64 60.69,80.54 60.69,81.64 L60.69,102.74 C60.69,103.84 61.59,104.74 62.69,104.74 L72.36,104.74 C73.46,104.74 74.36,103.84 74.36,102.74 L74.36,81.64 C74.36,80.54 73.47,79.64 72.36,79.64 Z" fill="#BAE2FD"/>
</svg>
